build/images/g19.svg

<svg width="138" height="138" viewBox="0 0 138 138" fill="none" xmlns="http://www.w3.org/2000/svg">
<circle cx="69" cy="69" r="69" fill="#76BD5E"/>
<path d="M102.295 65.7949C101.582 66.5553 100.845 67.3633 100.085 68.2188C99.3245 69.0742 98.3621 70.2148 97.1978 71.6406C96.0334 73.0664 95.0947 74.4922 94.3818 75.918C93.6689 77.3438 93.3125 78.5794 93.3125 79.625C93.3125 80.9082 91.0907 81.9894 86.647 82.8687C82.2033 83.7479 76.821 84.1875 70.5 84.1875C64.179 84.1875 58.7967 83.7479 54.353 82.8687C49.9093 81.9894 47.6875 80.9082 47.6875 79.625C47.6875 78.2467 47.0459 76.5239 45.7627 74.4565C44.4795 72.3892 43.2795 70.7257 42.1626 69.4663C41.0457 68.2069 39.9408 67.0306 38.8477 65.9375C35.6159 62.8008 34 58.9987 34 54.5312C34 50.1113 35.5565 46.3449 38.6694 43.2319C41.7824 40.119 45.5488 38.5625 49.9688 38.5625C51.0618 38.5625 52.2025 38.6813 53.3906 38.9189C52.6302 40.8675 52.25 43.0299 52.25 45.4062C52.25 50.4915 53.8184 54.7214 56.9551 58.0957C56.86 55.5293 56.8125 52.8203 56.8125 49.9688C56.8125 45.5488 58.1432 41.7824 60.8047 38.6694C63.4661 35.5565 66.6979 34 70.5 34C74.3021 34 77.5339 35.5565 80.1953 38.6694C82.8568 41.7824 84.1875 45.5488 84.1875 49.9688C84.1875 52.8678 84.14 55.5768 84.0449 58.0957C87.1816 54.7214 88.75 50.4915 88.75 45.4062C88.75 43.0299 88.3698 40.8675 87.6094 38.9189C88.7975 38.6813 89.9382 38.5625 91.0312 38.5625C95.4512 38.5625 99.2176 40.119 102.331 43.2319C105.444 46.3449 107 50.1113 107 54.5312C107 58.9512 105.432 62.7057 102.295 65.7949ZM70.4644 88.75C76.7616 88.75 82.1439 88.2985 86.6113 87.3955C91.0788 86.4925 93.3125 85.4232 93.3125 84.1875V102.438C93.3125 103.673 91.0788 104.743 86.6113 105.646C82.1439 106.549 76.7616 107 70.4644 107C64.1672 107 58.7967 106.549 54.353 105.646C49.9093 104.743 47.6875 103.673 47.6875 102.438V84.1875C47.6875 85.4707 49.9093 86.5519 54.353 87.4312C58.7967 88.3104 64.1672 88.75 70.4644 88.75Z" fill="white"/>
</svg>

<svg width="138" height="138" fill="none" xmlns="http://www.w3.org/2000/svg"><circle cx="69" cy="69" r="69" fill="#76BD5E"/><path d="M102.295 65.795c-.713.76-1.45 1.568-2.21 2.424-.76.855-1.723 1.996-2.887 3.422-1.165 1.425-2.103 2.851-2.816 4.277-.713 1.426-1.07 2.661-1.07 3.707 0 1.283-2.221 2.364-6.665 3.244-4.444.879-9.826 1.319-16.147 1.319-6.321 0-11.703-.44-16.147-1.32-4.444-.879-6.666-1.96-6.666-3.243 0-1.378-.641-3.101-1.924-5.168-1.283-2.068-2.483-3.731-3.6-4.99a80.94 80.94 0 00-3.315-3.53C35.616 62.801 34 59 34 54.532c0-4.42 1.556-8.186 4.67-11.3 3.112-3.112 6.879-4.669 11.299-4.669 1.093 0 2.233.12 3.422.357-.76 1.949-1.141 4.11-1.141 6.487 0 5.086 1.568 9.315 4.705 12.69a219.9 219.9 0 01-.142-8.127c0-4.42 1.33-8.187 3.992-11.3C63.466 35.557 66.698 34 70.5 34c3.802 0 7.034 1.556 9.695 4.67 2.662 3.112 3.993 6.879 3.993 11.299 0 2.899-.048 5.608-.143 8.127 3.137-3.375 4.705-7.604 4.705-12.69 0-2.376-.38-4.538-1.14-6.487a17.451 17.451 0 013.421-.356c4.42 0 8.187 1.556 11.3 4.669 3.113 3.113 4.669 6.88 4.669 11.3 0 4.42-1.568 8.174-4.705 11.263zM70.465 88.75c6.297 0 11.679-.451 16.146-1.355 4.468-.902 6.701-1.972 6.701-3.207v18.25c0 1.235-2.233 2.305-6.7 3.208-4.468.903-9.85 1.354-16.148 1.354-6.297 0-11.667-.451-16.111-1.354-4.444-.903-6.666-1.973-6.666-3.208v-18.25c0 1.283 2.222 2.364 6.666 3.243 4.444.88 9.814 1.319 16.111 1.319z" fill="#fff"/></svg>
